; G-Code generated by Simplify3D(R) Version 3.0.2
; Oct 26, 2016 at 3:09:40 PM
; Settings Summary
;   processName,Slice
;   applyToModels,123block
;   profileName,2016-10-21 PanelDue
;   profileVersion,2016-10-21 06:15:58
;   baseProfile,Default
;   printMaterial,PLA
;   printQuality,Medium
;   printExtruders,
;   extruderName,Extruder 1
;   extruderToolheadNumber,0
;   extruderDiameter,0.6
;   extruderAutoWidth,1
;   extruderWidth,0.72
;   extrusionMultiplier,1.2
;   extruderUseRetract,1
;   extruderRetractionDistance,3.5
;   extruderExtraRestartDistance,0
;   extruderRetractionZLift,0.2
;   extruderRetractionSpeed,24000
;   extruderUseCoasting,1
;   extruderCoastingDistance,4
;   extruderUseWipe,0
;   extruderWipeDistance,2
;   primaryExtruder,0
;   layerHeight,0.3
;   topSolidLayers,6
;   bottomSolidLayers,3
;   perimeterOutlines,2
;   printPerimetersInsideOut,1
;   startPointOption,3
;   startPointOriginX,0
;   startPointOriginY,0
;   startPointOriginZ,3000
;   sequentialIslands,0
;   spiralVaseMode,0
;   firstLayerHeightPercentage,100
;   firstLayerWidthPercentage,100
;   firstLayerUnderspeed,0.5
;   useRaft,0
;   raftExtruder,0
;   raftLayers,3
;   raftOffset,3
;   raftSeparationDistance,0.14
;   raftInfill,85
;   disableRaftBaseLayers,0
;   useSkirt,1
;   skirtExtruder,0
;   skirtLayers,1
;   skirtOutlines,4
;   skirtOffset,3
;   usePrimePillar,0
;   primePillarExtruder,999
;   primePillarWidth,12
;   primePillarLocation,7
;   primePillarSpeedMultiplier,1
;   useOozeShield,0
;   oozeShieldExtruder,999
;   oozeShieldOffset,2
;   oozeShieldOutlines,1
;   oozeShieldSidewallShape,1
;   oozeShieldSidewallAngle,30
;   oozeShieldSpeedMultiplier,1
;   infillExtruder,0
;   internalInfillPattern,Rectilinear
;   externalInfillPattern,Rectilinear
;   infillPercentage,30
;   outlineOverlapPercentage,15
;   infillExtrusionWidthPercentage,100
;   minInfillLength,5
;   infillLayerInterval,1
;   infillAngles,-45,45
;   overlapInfillAngles,0
;   generateSupport,1
;   supportExtruder,0
;   supportInfillPercentage,20
;   supportExtraInflation,1
;   denseSupportLayers,2
;   denseSupportInfillPercentage,50
;   supportLayerInterval,1
;   supportHorizontalPartOffset,1
;   supportUpperSeparationLayers,1
;   supportLowerSeparationLayers,1
;   supportType,1
;   supportGridSpacing,4
;   maxOverhangAngle,30
;   supportAngles,90
;   temperatureName,Extruder 1 Temperature
;   temperatureNumber,0
;   temperatureSetpointCount,2
;   temperatureSetpointLayers,1,2
;   temperatureSetpointTemperatures,230,220
;   temperatureStabilizeAtStartup,1
;   temperatureHeatedBed,0
;   temperatureRelayBetweenLayers,0
;   temperatureRelayBetweenLoops,0
;   fanLayers,1,3
;   fanSpeeds,0,30
;   blipFanToFullPower,0
;   adjustSpeedForCooling,1
;   minSpeedLayerTime,15
;   minCoolingSpeedSlowdown,20
;   increaseFanForCooling,1
;   minFanLayerTime,45
;   maxCoolingFanSpeed,100
;   increaseFanForBridging,0
;   bridgingFanSpeed,100
;   use5D,1
;   relativeEdistances,0
;   allowEaxisZeroing,1
;   independentExtruderAxes,0
;   includeM10123,0
;   stickySupport,1
;   applyToolheadOffsets,0
;   gcodeXoffset,0
;   gcodeYoffset,0
;   gcodeZoffset,0
;   overrideMachineDefinition,1
;   machineTypeOverride,1
;   strokeXoverride,300
;   strokeYoverride,300
;   strokeZoverride,280
;   originOffsetXoverride,150
;   originOffsetYoverride,150
;   originOffsetZoverride,0
;   homeXdirOverride,0
;   homeYdirOverride,0
;   homeZdirOverride,1
;   flipXoverride,1
;   flipYoverride,-1
;   flipZoverride,1
;   toolheadOffsets,0,0|0,0|0,0|0,0|0,0|0,0
;   overrideFirmwareConfiguration,1
;   firmwareTypeOverride,RepRap (Marlin/Repetier/Sprinter)
;   GPXconfigOverride,r2
;   baudRateOverride,250000
;   overridePrinterModels,0
;   printerModelsOverride
;   startingGcode,G32 ; home and autolevel,
;   layerChangeGcode,
;   retractionGcode,
;   toolChangeGcode,
;   endingGcode,M104 S0 ; turn off extruder,M140 S0 ; turn off bed,G28 ; home all axes,M84 ; disable motors
;   createX3G,0
;   celebration,0
;   celebrationSong,Random Song
;   createMB5G,0
;   postProcessing,
;   defaultSpeed,3600
;   outlineUnderspeed,0.5
;   solidInfillUnderspeed,0.8
;   supportUnderspeed,0.8
;   rapidXYspeed,24000
;   rapidZspeed,3600
;   minBridgingArea,50
;   bridgingExtraInflation,0
;   bridgingExtrusionMultiplier,1
;   bridgingSpeedMultiplier,1
;   filamentDiameter,1.75
;   filamentPricePerKg,22
;   filamentDensity,1.25
;   useMinPrintHeight,0
;   minPrintHeight,0
;   useMaxPrintHeight,0
;   maxPrintHeight,0
;   useDiaphragm,0
;   diaphragmLayerInterval,20
;   robustSlicing,1
;   mergeAllIntoSolid,0
;   onlyRetractWhenCrossingOutline,0
;   retractBetweenLayers,0
;   useRetractionMinTravel,1
;   retractionMinTravel,3
;   retractWhileWiping,1
;   onlyWipeOutlines,1
;   avoidCrossingOutline,0
;   maxMovementDetourFactor,3
;   toolChangeRetractionDistance,12
;   toolChangeExtraRestartDistance,-0.5
;   toolChangeRetractionSpeed,600
;   allowThinWallGapFill,1
;   thinWallAllowedOverlapPercentage,10
;   horizontalSizeCompensation,0
G90
M82
M106 S0
M104 S230 T0
M109 S230 T0
G32 ; home and autolevel
G92 E0
G1 E-3.5000 F24000
G1 Z0.500 F3600
; layer 1, Z = 0.3
T0
; tool H0.300 W0.720
; skirt
G1 X39.844 Y30.920 F24000
G1 Z0.300 F3600
G1 E0.0000 F7200
G92 E0
G1 X-39.844 Y30.920 E8.5874 F1800
G1 X-40.770 Y30.536 E8.6954
G1 X-43.236 Y28.070 E9.0713
G1 X-43.620 Y27.144 E9.1793
G1 X-43.620 Y-27.144 E15.0295
G1 X-43.236 Y-28.070 E15.1375
G1 X-40.770 Y-30.536 E15.5134
G1 X-39.844 Y-30.920 E15.6214
G1 X39.844 Y-30.920 E24.2088
G1 X40.770 Y-30.536 E24.3169
G1 X43.236 Y-28.070 E24.6927
G1 X43.620 Y-27.144 E24.8007
G1 X43.620 Y27.144 E30.6509
G1 X43.236 Y28.070 E30.7590
G1 X42.890 Y28.417 E30.8118
G1 X40.770 Y30.536 F1800
G1 X39.844 Y30.920 F1800
G1 X39.701 Y30.200 F24000
G92 E0
G1 X-39.701 Y30.200 E8.5565 F1800
G1 X-40.362 Y29.926 E8.6337
G1 X-42.626 Y27.662 E8.9787
G1 X-42.900 Y27.001 E9.0558
G1 X-42.900 Y-27.001 E14.8752
G1 X-42.626 Y-27.662 E14.9523
G1 X-40.362 Y-29.926 E15.2973
G1 X-39.701 Y-30.200 E15.3745
G1 X39.701 Y-30.200 E23.9310
G1 X40.362 Y-29.926 E24.0082
G1 X42.626 Y-27.662 E24.3532
G1 X42.900 Y-27.001 E24.4303
G1 X42.900 Y27.001 E30.2497
G1 X42.658 Y27.586 E30.3179
G1 X42.626 Y27.662 F1800
G1 X40.362 Y29.926 F1800
G1 X39.701 Y30.200 F1800
G1 X39.557 Y29.480 F24000
G92 E0
G1 X-39.557 Y29.480 E8.5256 F1800
G1 X-39.954 Y29.316 E8.5719
G1 X-42.016 Y27.254 E8.8861
G1 X-42.180 Y26.857 E8.9324
G1 X-42.180 Y-26.857 E14.7208
G1 X-42.016 Y-27.254 E14.7671
G1 X-39.954 Y-29.316 E15.0813
G1 X-39.557 Y-29.480 E15.1276
G1 X39.557 Y-29.480 E23.6532
G1 X39.954 Y-29.316 E23.6995
G1 X42.016 Y-27.254 E24.0136
G1 X42.180 Y-26.857 E24.0599
G1 X42.180 Y26.632 E29.8241
G1 X42.180 Y26.857 F1800
G1 X42.016 Y27.254 F1800
G1 X39.954 Y29.316 F1800
G1 X39.557 Y29.480 F1800
G1 X39.414 Y28.760 F24000
G92 E0
G1 X-39.414 Y28.760 E8.4948 F1800
G1 X-39.547 Y28.705 E8.5102
G1 X-41.405 Y26.847 E8.7935
G1 X-41.460 Y26.714 E8.8089
G1 X-41.460 Y-26.714 E14.5665
G1 X-41.405 Y-26.847 E14.5819
G1 X-39.547 Y-28.705 E14.8652
G1 X-39.414 Y-28.760 E14.8806
G1 X39.414 Y-28.760 E23.3754
G1 X39.547 Y-28.705 E23.3908
G1 X41.405 Y-26.847 E23.6741
G1 X41.460 Y-26.714 E23.6895
G1 X41.460 Y25.629 E29.3302
G1 X41.460 Y26.714 F1800
G1 X41.405 Y26.847 F1800
G1 X39.547 Y28.705 F1800
G1 X39.414 Y28.760 F1800
G92 E0
G1 E-3.5000 F24000
G1 Z0.500 F3600
; inner perimeter
G1 X37.020 Y24.320 F24000
G1 Z0.300 F3600
G1 E0.0000 F24000
G92 E0
G1 X-37.020 Y24.320 E7.9788 F1350
G1 X-37.020 Y-24.320 E13.2203
G1 X37.020 Y-24.320 E21.1991
G1 X37.020 Y20.320 E26.0096
G1 X37.020 Y24.320 F1350
; outer perimeter
G1 X37.740 Y25.040 F24000
G92 E0
G1 X-37.740 Y25.040 E8.1339 F900
G1 X-37.740 Y-25.040 E13.5307
G1 X37.740 Y-25.040 E21.6646
G1 X37.740 Y21.040 E26.6303
G1 X37.740 Y25.040 F900
G92 E0
G1 E-3.5000 F24000
G1 Z0.500 F3600
; inner perimeter
G1 X25.400 Y22.166 F24000
G1 Z0.300 F3600
G1 E0.0000 F24000
G92 E0
G1 X27.044 Y22.022 E0.1778 F1350
G1 X28.638 Y21.595 E0.3556
G1 X30.133 Y20.898 E0.5334
G1 X31.485 Y19.951 E0.7113
G1 X32.651 Y18.785 E0.8891
G1 X33.598 Y17.433 E1.0669
G1 X34.295 Y15.938 E1.2447
G1 X34.722 Y14.344 E1.4225
G1 X34.866 Y12.700 E1.6003
G1 X34.722 Y11.056 E1.7781
G1 X34.295 Y9.462 E1.9560
G1 X33.598 Y7.967 E2.1338
G1 X32.651 Y6.615 E2.3116
G1 X31.485 Y5.448 E2.4894
G1 X30.133 Y4.502 E2.6672
G1 X28.638 Y3.805 E2.8450
G1 X27.044 Y3.378 E3.0229
G1 X25.400 Y3.234 E3.2007
G1 X23.756 Y3.378 E3.3785
G1 X22.162 Y3.805 E3.5563
G1 X20.667 Y4.502 E3.7341
G1 X19.315 Y5.449 E3.9119
G1 X18.149 Y6.615 E4.0897
G1 X17.202 Y7.967 E4.2675
G1 X16.505 Y9.462 E4.4454
G1 X16.078 Y11.056 E4.6232
G1 X15.934 Y12.700 E4.8010
G1 X16.078 Y14.344 E4.9788
G1 X16.505 Y15.938 E5.1566
G1 X17.202 Y17.433 E5.3344
G1 X18.148 Y18.785 E5.5122
G1 X19.315 Y19.951 E5.6901
G1 X20.667 Y20.898 E5.8679
G1 X21.528 Y21.299 E5.9703
G1 X22.162 Y21.595 F1350
G1 X23.756 Y22.022 F1350
G1 X25.400 Y22.166 F1350
; outer perimeter
G1 X25.400 Y21.443 F24000
G92 E0
G1 X26.918 Y21.311 E0.1642 F900
G1 X28.390 Y20.916 E0.3285
G1 X29.772 Y20.272 E0.4927
G1 X31.020 Y19.398 E0.6569
G1 X32.098 Y18.320 E0.8212
G1 X32.972 Y17.072 E0.9854
G1 X33.616 Y15.690 E1.1497
G1 X34.011 Y14.218 E1.3139
G1 X34.143 Y12.700 E1.4781
G1 X34.011 Y11.182 E1.6424
G1 X33.616 Y9.710 E1.8066
G1 X32.972 Y8.328 E1.9709
G1 X32.098 Y7.080 E2.1351
G1 X31.020 Y6.002 E2.2993
G1 X29.772 Y5.128 E2.4636
G1 X28.390 Y4.484 E2.6278
G1 X26.918 Y4.089 E2.7921
G1 X25.400 Y3.957 E2.9563
G1 X23.882 Y4.089 E3.1205
G1 X22.410 Y4.484 E3.2848
G1 X21.028 Y5.128 E3.4490
G1 X19.780 Y6.002 E3.6132
G1 X18.702 Y7.080 E3.7775
G1 X17.828 Y8.328 E3.9417
G1 X17.184 Y9.710 E4.1060
G1 X16.789 Y11.182 E4.2702
G1 X16.657 Y12.700 E4.4344
G1 X16.789 Y14.218 E4.5987
G1 X17.184 Y15.690 E4.7629
G1 X17.828 Y17.072 E4.9271
G1 X18.702 Y18.320 E5.0914
G1 X19.780 Y19.398 E5.2556
G1 X21.028 Y20.272 E5.4199
G1 X21.547 Y20.514 E5.4815
G1 X22.410 Y20.916 F900
G1 X23.882 Y21.311 F900
G1 X25.400 Y21.443 F900
G92 E0
G1 E-3.5000 F24000
G1 Z0.500 F3600
; inner perimeter
G1 X0.000 Y22.166 F24000
G1 Z0.300 F3600
G1 E0.0000 F24000
G92 E0
G1 X1.644 Y22.022 E0.1778 F1350
G1 X3.238 Y21.595 E0.3556
G1 X4.733 Y20.898 E0.5334
G1 X6.085 Y19.951 E0.7113
G1 X7.251 Y18.785 E0.8891
G1 X8.198 Y17.433 E1.0669
G1 X8.895 Y15.938 E1.2447
G1 X9.322 Y14.344 E1.4225
G1 X9.466 Y12.700 E1.6003
G1 X9.322 Y11.056 E1.7781
G1 X8.895 Y9.462 E1.9560
G1 X8.198 Y7.967 E2.1338
G1 X7.251 Y6.615 E2.3116
G1 X6.085 Y5.449 E2.4894
G1 X4.733 Y4.502 E2.6672
G1 X3.238 Y3.805 E2.8450
G1 X1.644 Y3.378 E3.0228
G1 X0.000 Y3.234 E3.2007
G1 X-1.644 Y3.378 E3.3785
G1 X-3.238 Y3.805 E3.5563
G1 X-4.733 Y4.502 E3.7341
G1 X-6.085 Y5.449 E3.9119
G1 X-7.251 Y6.615 E4.0897
G1 X-8.198 Y7.967 E4.2675
G1 X-8.895 Y9.462 E4.4454
G1 X-9.322 Y11.056 E4.6232
G1 X-9.466 Y12.700 E4.8010
G1 X-9.322 Y14.344 E4.9788
G1 X-8.895 Y15.938 E5.1566
G1 X-8.198 Y17.433 E5.3344
G1 X-7.251 Y18.785 E5.5122
G1 X-6.085 Y19.951 E5.6901
G1 X-4.733 Y20.898 E5.8679
G1 X-3.872 Y21.299 E5.9703
G1 X-3.238 Y21.595 F1350
G1 X-1.644 Y22.022 F1350
G1 X0.000 Y22.166 F1350
; outer perimeter
G1 X0.000 Y21.443 F24000
G92 E0
G1 X1.518 Y21.311 E0.1642 F900
G1 X2.990 Y20.916 E0.3285
G1 X4.372 Y20.272 E0.4927
G1 X5.620 Y19.398 E0.6570
G1 X6.698 Y18.320 E0.8212
G1 X7.572 Y17.072 E0.9854
G1 X8.216 Y15.690 E1.1497
G1 X8.611 Y14.218 E1.3139
G1 X8.743 Y12.700 E1.4781
G1 X8.611 Y11.182 E1.6424
G1 X8.216 Y9.710 E1.8066
G1 X7.572 Y8.328 E1.9709
G1 X6.698 Y7.080 E2.1351
G1 X5.620 Y6.002 E2.2993
G1 X4.372 Y5.128 E2.4636
G1 X2.990 Y4.484 E2.6278
G1 X1.518 Y4.089 E2.7920
G1 X0.000 Y3.957 E2.9563
G1 X-1.518 Y4.089 E3.1205
G1 X-2.990 Y4.484 E3.2848
G1 X-4.372 Y5.128 E3.4490
G1 X-5.620 Y6.002 E3.6132
G1 X-6.698 Y7.080 E3.7775
G1 X-7.572 Y8.328 E3.9417
G1 X-8.216 Y9.710 E4.1059
G1 X-8.611 Y11.182 E4.2702
G1 X-8.743 Y12.700 E4.4344
G1 X-8.611 Y14.218 E4.5987
G1 X-8.216 Y15.690 E4.7629
G1 X-7.572 Y17.072 E4.9271
G1 X-6.698 Y18.320 E5.0914
G1 X-5.620 Y19.398 E5.2556
G1 X-4.372 Y20.272 E5.4199
G1 X-3.853 Y20.514 E5.4815
G1 X-2.990 Y20.916 F900
G1 X-1.518 Y21.311 F900
G1 X0.000 Y21.443 F900
G92 E0
G1 E-3.5000 F24000
G1 Z0.500 F3600
; inner perimeter
G1 X-25.400 Y22.166 F24000
G1 Z0.300 F3600
G1 E0.0000 F24000
G92 E0
G1 X-23.756 Y22.022 E0.1778 F1350
G1 X-22.162 Y21.595 E0.3556
G1 X-20.667 Y20.898 E0.5334
G1 X-19.315 Y19.951 E0.7113
G1 X-18.148 Y18.785 E0.8891
G1 X-17.202 Y17.433 E1.0669
G1 X-16.505 Y15.938 E1.2447
G1 X-16.078 Y14.344 E1.4225
G1 X-15.934 Y12.700 E1.6003
G1 X-16.078 Y11.056 E1.7781
G1 X-16.505 Y9.462 E1.9560
G1 X-17.202 Y7.967 E2.1338
G1 X-18.149 Y6.615 E2.3116
G1 X-19.315 Y5.449 E2.4894
G1 X-20.667 Y4.502 E2.6672
G1 X-22.162 Y3.805 E2.8450
G1 X-23.756 Y3.378 E3.0229
G1 X-25.400 Y3.234 E3.2007
G1 X-27.044 Y3.378 E3.3785
G1 X-28.638 Y3.805 E3.5563
G1 X-30.133 Y4.502 E3.7341
G1 X-31.485 Y5.448 E3.9119
G1 X-32.651 Y6.615 E4.0897
G1 X-33.598 Y7.967 E4.2676
G1 X-34.295 Y9.462 E4.4454
G1 X-34.722 Y11.056 E4.6232
G1 X-34.866 Y12.700 E4.8010
G1 X-34.722 Y14.344 E4.9788
G1 X-34.295 Y15.938 E5.1566
G1 X-33.598 Y17.433 E5.3344
G1 X-32.651 Y18.785 E5.5123
G1 X-31.485 Y19.951 E5.6901
G1 X-30.133 Y20.898 E5.8679
G1 X-29.272 Y21.299 E5.9703
G1 X-28.638 Y21.595 F1350
G1 X-27.044 Y22.022 F1350
G1 X-25.400 Y22.166 F1350
; outer perimeter
G1 X-25.400 Y21.443 F24000
G92 E0
G1 X-23.882 Y21.311 E0.1642 F900
G1 X-22.410 Y20.916 E0.3285
G1 X-21.028 Y20.272 E0.4927
G1 X-19.780 Y19.398 E0.6570
G1 X-18.702 Y18.320 E0.8212
G1 X-17.828 Y17.072 E0.9854
G1 X-17.184 Y15.690 E1.1497
G1 X-16.789 Y14.218 E1.3139
G1 X-16.657 Y12.700 E1.4781
G1 X-16.789 Y11.182 E1.6424
G1 X-17.184 Y9.710 E1.8066
G1 X-17.828 Y8.328 E1.9709
G1 X-18.702 Y7.080 E2.1351
G1 X-19.780 Y6.002 E2.2993
G1 X-21.028 Y5.128 E2.4636
G1 X-22.410 Y4.484 E2.6278
G1 X-23.882 Y4.089 E2.7921
G1 X-25.400 Y3.957 E2.9563
G1 X-26.918 Y4.089 E3.1205
G1 X-28.390 Y4.484 E3.2848
G1 X-29.772 Y5.128 E3.4490
G1 X-31.020 Y6.002 E3.6132
G1 X-32.098 Y7.080 E3.7775
G1 X-32.972 Y8.328 E3.9417
G1 X-33.616 Y9.710 E4.1060
G1 X-34.011 Y11.182 E4.2702
G1 X-34.143 Y12.700 E4.4344
G1 X-34.011 Y14.218 E4.5987
G1 X-33.616 Y15.690 E4.7629
G1 X-32.972 Y17.072 E4.9272
G1 X-32.098 Y18.320 E5.0914
G1 X-31.020 Y19.398 E5.2556
G1 X-29.772 Y20.272 E5.4199
G1 X-29.253 Y20.514 E5.4815
G1 X-28.390 Y20.916 F900
G1 X-26.918 Y21.311 F900
G1 X-25.400 Y21.443 F900
G92 E0
G1 E-3.5000 F24000
G1 Z0.500 F3600
; inner perimeter
G1 X-25.400 Y-3.234 F24000
G1 Z0.300 F3600
G1 E0.0000 F24000
G92 E0
G1 X-23.756 Y-3.378 E0.1778 F1350
G1 X-22.162 Y-3.805 E0.3556
G1 X-20.667 Y-4.502 E0.5334
G1 X-19.315 Y-5.449 E0.7113
G1 X-18.149 Y-6.615 E0.8891
G1 X-17.202 Y-7.967 E1.0669
G1 X-16.505 Y-9.462 E1.2447
G1 X-16.078 Y-11.056 E1.4225
G1 X-15.934 Y-12.700 E1.6003
G1 X-16.078 Y-14.344 E1.7781
G1 X-16.505 Y-15.938 E1.9560
G1 X-17.202 Y-17.433 E2.1338
G1 X-18.148 Y-18.785 E2.3116
G1 X-19.315 Y-19.951 E2.4894
G1 X-20.667 Y-20.898 E2.6672
G1 X-22.162 Y-21.595 E2.8450
G1 X-23.756 Y-22.022 E3.0229
G1 X-25.400 Y-22.166 E3.2007
G1 X-27.044 Y-22.022 E3.3785
G1 X-28.638 Y-21.595 E3.5563
G1 X-30.133 Y-20.898 E3.7341
G1 X-31.485 Y-19.951 E3.9119
G1 X-32.651 Y-18.785 E4.0897
G1 X-33.598 Y-17.433 E4.2676
G1 X-34.295 Y-15.938 E4.4454
G1 X-34.722 Y-14.344 E4.6232
G1 X-34.866 Y-12.700 E4.8010
G1 X-34.722 Y-11.056 E4.9788
G1 X-34.295 Y-9.462 E5.1566
G1 X-33.598 Y-7.967 E5.3344
G1 X-32.651 Y-6.615 E5.5123
G1 X-31.485 Y-5.448 E5.6901
G1 X-30.133 Y-4.502 E5.8679
G1 X-29.272 Y-4.101 E5.9703
G1 X-28.638 Y-3.805 F1350
G1 X-27.044 Y-3.378 F1350
G1 X-25.400 Y-3.234 F1350
; outer perimeter
G1 X-25.400 Y-3.957 F24000
G92 E0
G1 X-23.882 Y-4.089 E0.1642 F900
G1 X-22.410 Y-4.484 E0.3285
G1 X-21.028 Y-5.128 E0.4927
G1 X-19.780 Y-6.002 E0.6570
G1 X-18.702 Y-7.080 E0.8212
G1 X-17.828 Y-8.328 E0.9854
G1 X-17.184 Y-9.710 E1.1497
G1 X-16.789 Y-11.182 E1.3139
G1 X-16.657 Y-12.700 E1.4781
G1 X-16.789 Y-14.218 E1.6424
G1 X-17.184 Y-15.690 E1.8066
G1 X-17.828 Y-17.072 E1.9709
G1 X-18.702 Y-18.320 E2.1351
G1 X-19.780 Y-19.398 E2.2993
G1 X-21.028 Y-20.272 E2.4636
G1 X-22.410 Y-20.916 E2.6278
G1 X-23.882 Y-21.311 E2.7921
G1 X-25.400 Y-21.443 E2.9563
G1 X-26.918 Y-21.311 E3.1205
