; G-Code generated by Simplify3D(R) Version 3.0.2
; Apr 26, 2016 at 9:00:22 PM
; Settings Summary
;   processName,Slice
;   applyToModels,hitachi-c10fch2-shopvac
;   profileName,2016-04-26 ShopVac infill=50% extrusion=0.90
;   profileVersion,2016-04-24 10:58:56
;   baseProfile,Default
;   printMaterial,PLA
;   printQuality,Medium
;   printExtruders,
;   extruderName,Extruder 1
;   extruderToolheadNumber,0
;   extruderDiameter,0.6
;   extruderAutoWidth,1
;   extruderWidth,0.72
;   extrusionMultiplier,0.9
;   extruderUseRetract,1
;   extruderRetractionDistance,4
;   extruderExtraRestartDistance,0
;   extruderRetractionZLift,0.2
;   extruderRetractionSpeed,24000
;   extruderUseCoasting,0
;   extruderCoastingDistance,0.5
;   extruderUseWipe,1
;   extruderWipeDistance,1
;   primaryExtruder,0
;   layerHeight,0.3
;   topSolidLayers,3
;   bottomSolidLayers,2
;   perimeterOutlines,2
;   printPerimetersInsideOut,1
;   startPointOption,1
;   startPointOriginX,0
;   startPointOriginY,0
;   startPointOriginZ,300
;   sequentialIslands,1
;   spiralVaseMode,0
;   firstLayerHeightPercentage,120
;   firstLayerWidthPercentage,100
;   firstLayerUnderspeed,0.5
;   useRaft,0
;   raftExtruder,0
;   raftLayers,3
;   raftOffset,3
;   raftSeparationDistance,0.14
;   raftInfill,85
;   disableRaftBaseLayers,0
;   useSkirt,1
;   skirtExtruder,0
;   skirtLayers,1
;   skirtOutlines,3
;   skirtOffset,4
;   usePrimePillar,0
;   primePillarExtruder,999
;   primePillarWidth,12
;   primePillarLocation,7
;   primePillarSpeedMultiplier,1
;   useOozeShield,0
;   oozeShieldExtruder,999
;   oozeShieldOffset,2
;   oozeShieldOutlines,1
;   oozeShieldSidewallShape,1
;   oozeShieldSidewallAngle,30
;   oozeShieldSpeedMultiplier,1
;   infillExtruder,0
;   internalInfillPattern,Triangular
;   externalInfillPattern,Rectilinear
;   infillPercentage,50
;   outlineOverlapPercentage,15
;   infillExtrusionWidthPercentage,100
;   minInfillLength,5
;   infillLayerInterval,1
;   infillAngles,0,60,-60
;   overlapInfillAngles,1
;   generateSupport,0
;   supportExtruder,0
;   supportInfillPercentage,30
;   supportExtraInflation,0
;   denseSupportLayers,0
;   denseSupportInfillPercentage,70
;   supportLayerInterval,1
;   supportHorizontalPartOffset,0.3
;   supportUpperSeparationLayers,1
;   supportLowerSeparationLayers,1
;   supportType,0
;   supportGridSpacing,4
;   maxOverhangAngle,45
;   supportAngles,0
;   temperatureName,Extruder 1 Temperature
;   temperatureNumber,0
;   temperatureSetpointCount,2
;   temperatureSetpointLayers,1,2
;   temperatureSetpointTemperatures,230,210
;   temperatureStabilizeAtStartup,1
;   temperatureHeatedBed,0
;   temperatureRelayBetweenLayers,0
;   temperatureRelayBetweenLoops,0
;   fanLayers,1,2
;   fanSpeeds,0,100
;   blipFanToFullPower,0
;   adjustSpeedForCooling,1
;   minSpeedLayerTime,15
;   minCoolingSpeedSlowdown,20
;   increaseFanForCooling,0
;   minFanLayerTime,45
;   maxCoolingFanSpeed,100
;   increaseFanForBridging,0
;   bridgingFanSpeed,100
;   use5D,1
;   relativeEdistances,0
;   allowEaxisZeroing,1
;   independentExtruderAxes,0
;   includeM10123,0
;   stickySupport,1
;   applyToolheadOffsets,0
;   gcodeXoffset,0
;   gcodeYoffset,0
;   gcodeZoffset,0
;   overrideMachineDefinition,1
;   machineTypeOverride,1
;   strokeXoverride,300
;   strokeYoverride,300
;   strokeZoverride,300
;   originOffsetXoverride,150
;   originOffsetYoverride,150
;   originOffsetZoverride,0
;   homeXdirOverride,0
;   homeYdirOverride,0
;   homeZdirOverride,1
;   flipXoverride,1
;   flipYoverride,-1
;   flipZoverride,1
;   toolheadOffsets,0,0|0,0|0,0|0,0|0,0|0,0
;   overrideFirmwareConfiguration,1
;   firmwareTypeOverride,RepRap (Marlin/Repetier/Sprinter)
;   GPXconfigOverride,r2
;   baudRateOverride,250000
;   overridePrinterModels,0
;   printerModelsOverride
;   startingGcode,G32 ; home and autolevel,
;   layerChangeGcode,
;   retractionGcode,
;   toolChangeGcode,
;   endingGcode,M104 S0 ; turn off extruder,M140 S0 ; turn off bed,G28 ; home all axes,M84 ; disable motors
;   createX3G,0
;   celebration,0
;   celebrationSong,Random Song
;   createMB5G,0
;   postProcessing,
;   defaultSpeed,3600
;   outlineUnderspeed,0.5
;   solidInfillUnderspeed,0.8
;   supportUnderspeed,0.8
;   rapidXYspeed,24000
;   rapidZspeed,3600
;   minBridgingArea,50
;   bridgingExtraInflation,0
;   bridgingExtrusionMultiplier,1
;   bridgingSpeedMultiplier,1
;   filamentDiameter,1.75
;   filamentPricePerKg,22
;   filamentDensity,1.25
;   useMinPrintHeight,0
;   minPrintHeight,0
;   useMaxPrintHeight,0
;   maxPrintHeight,0
;   useDiaphragm,0
;   diaphragmLayerInterval,20
;   robustSlicing,1
;   mergeAllIntoSolid,0
;   onlyRetractWhenCrossingOutline,0
;   retractBetweenLayers,0
;   useRetractionMinTravel,1
;   retractionMinTravel,3
;   retractWhileWiping,1
;   onlyWipeOutlines,1
;   avoidCrossingOutline,0
;   maxMovementDetourFactor,3
;   toolChangeRetractionDistance,12
;   toolChangeExtraRestartDistance,-0.5
;   toolChangeRetractionSpeed,600
;   allowThinWallGapFill,1
;   thinWallAllowedOverlapPercentage,10
;   horizontalSizeCompensation,0
G90
M82
M106 S0
M104 S230 T0
M109 S230 T0
G32 ; home and autolevel
G92 E0
G1 E-4.0000 F24000
G1 Z0.560 F3600
; layer 1, Z = 0.36
T0
; tool H0.360 W0.720
; skirt
G1 X-13.800 Y30.715 F24000
G1 Z0.360 F3600
G1 E0.0000 F7200
G92 E0
G1 X-15.621 Y30.016 E0.1891 F1800
G1 X-15.664 Y29.998 E0.1937
G1 X-15.899 Y29.893 E0.2186
G1 X-15.941 Y29.873 E0.2232
G1 X-19.247 Y28.188 E0.5831
G1 X-19.289 Y28.166 E0.5876
G1 X-19.511 Y28.038 E0.6125
G1 X-19.551 Y28.013 E0.6171
G1 X-22.663 Y25.992 E0.9770
G1 X-22.702 Y25.965 E0.9816
G1 X-22.910 Y25.814 E1.0064
G1 X-22.947 Y25.786 E1.0110
G1 X-25.831 Y23.450 E1.3709
G1 X-25.867 Y23.420 E1.3755
G1 X-26.058 Y23.248 E1.4004
G1 X-26.092 Y23.216 E1.4049
G1 X-28.716 Y20.592 E1.7648
G1 X-28.748 Y20.558 E1.7694
G1 X-28.920 Y20.367 E1.7943
G1 X-28.950 Y20.331 E1.7989
G1 X-31.286 Y17.447 E2.1588
G1 X-31.314 Y17.410 E2.1633
G1 X-31.465 Y17.202 E2.1882
G1 X-31.492 Y17.163 E2.1928
G1 X-33.513 Y14.051 E2.5527
G1 X-33.538 Y14.011 E2.5573
G1 X-33.666 Y13.789 E2.5822
G1 X-33.688 Y13.747 E2.5867
G1 X-35.373 Y10.441 E2.9466
G1 X-35.393 Y10.399 E2.9512
G1 X-35.498 Y10.164 E2.9761
G1 X-35.516 Y10.121 E2.9806
G1 X-36.846 Y6.656 E3.3405
G1 X-36.861 Y6.612 E3.3451
G1 X-36.941 Y6.368 E3.3700
G1 X-36.954 Y6.323 E3.3746
G1 X-37.914 Y2.738 E3.7345
G1 X-37.925 Y2.692 E3.7391
G1 X-37.979 Y2.441 E3.7639
G1 X-37.987 Y2.395 E3.7685
G1 X-38.568 Y-1.270 E4.1284
G1 X-38.574 Y-1.317 E4.1330
G1 X-38.601 Y-1.572 E4.1579
G1 X-38.605 Y-1.619 E4.1624
G1 X-38.799 Y-5.325 E4.5223
G1 X-38.800 Y-5.372 E4.5269
G1 X-38.800 Y-5.628 E4.5518
G1 X-38.799 Y-5.675 E4.5564
G1 X-38.605 Y-9.381 E4.9163
G1 X-38.601 Y-9.428 E4.9208
G1 X-38.574 Y-9.683 E4.9457
G1 X-38.568 Y-9.730 E4.9503
G1 X-37.987 Y-13.395 E5.3102
G1 X-37.979 Y-13.441 E5.3147
G1 X-37.925 Y-13.692 E5.3396
G1 X-37.914 Y-13.738 E5.3442
G1 X-36.954 Y-17.323 E5.7041
G1 X-36.941 Y-17.368 E5.7087
G1 X-36.861 Y-17.612 E5.7336
G1 X-36.846 Y-17.656 E5.7381
G1 X-35.516 Y-21.121 E6.0980
G1 X-35.498 Y-21.164 E6.1026
G1 X-35.393 Y-21.399 E6.1275
G1 X-35.373 Y-21.441 E6.1321
G1 X-33.688 Y-24.747 E6.4920
G1 X-33.666 Y-24.789 E6.4965
G1 X-33.538 Y-25.011 E6.5214
G1 X-33.513 Y-25.051 E6.5260
G1 X-31.492 Y-28.163 E6.8859
G1 X-31.465 Y-28.202 E6.8904
G1 X-31.314 Y-28.410 E6.9153
G1 X-31.286 Y-28.447 E6.9199
G1 X-28.950 Y-31.331 E7.2798
G1 X-28.920 Y-31.367 E7.2844
G1 X-28.748 Y-31.558 E7.3093
G1 X-28.716 Y-31.592 E7.3138
G1 X-26.092 Y-34.216 E7.6737
G1 X-26.058 Y-34.248 E7.6783
G1 X-25.867 Y-34.420 E7.7032
G1 X-25.831 Y-34.450 E7.7078
G1 X-22.947 Y-36.786 E8.0677
G1 X-22.910 Y-36.814 E8.0722
G1 X-22.702 Y-36.965 E8.0971
G1 X-22.663 Y-36.992 E8.1017
G1 X-19.551 Y-39.013 E8.4616
G1 X-19.511 Y-39.038 E8.4662
G1 X-19.289 Y-39.166 E8.4910
G1 X-19.247 Y-39.188 E8.4956
G1 X-15.941 Y-40.873 E8.8555
G1 X-15.899 Y-40.893 E8.8601
G1 X-15.664 Y-40.998 E8.8850
G1 X-15.621 Y-41.016 E8.8895
G1 X-12.156 Y-42.346 E9.2494
G1 X-12.112 Y-42.361 E9.2540
G1 X-11.868 Y-42.441 E9.2789
G1 X-11.823 Y-42.454 E9.2835
G1 X-8.238 Y-43.414 E9.6434
G1 X-8.192 Y-43.425 E9.6479
G1 X-7.941 Y-43.479 E9.6728
G1 X-7.895 Y-43.487 E9.6774
G1 X-4.230 Y-44.068 E10.0373
G1 X-4.183 Y-44.074 E10.0419
G1 X-3.928 Y-44.101 E10.0667
G1 X-3.881 Y-44.105 E10.0713
G1 X-0.175 Y-44.299 E10.4312
G1 X-0.128 Y-44.300 E10.4358
G1 X0.128 Y-44.300 E10.4607
G1 X0.175 Y-44.299 E10.4652
G1 X3.881 Y-44.105 E10.8251
G1 X3.928 Y-44.101 E10.8297
G1 X4.183 Y-44.074 E10.8546
G1 X4.230 Y-44.068 E10.8592
G1 X7.895 Y-43.487 E11.2191
G1 X7.941 Y-43.479 E11.2236
G1 X8.192 Y-43.425 E11.2485
G1 X8.238 Y-43.414 E11.2531
G1 X11.823 Y-42.454 E11.6130
G1 X11.868 Y-42.441 E11.6176
G1 X12.112 Y-42.361 E11.6425
G1 X12.156 Y-42.346 E11.6470
G1 X15.621 Y-41.016 E12.0069
G1 X15.664 Y-40.998 E12.0115
G1 X15.899 Y-40.893 E12.0364
G1 X15.941 Y-40.873 E12.0409
G1 X19.247 Y-39.188 E12.4008
G1 X19.289 Y-39.166 E12.4054
G1 X19.511 Y-39.038 E12.4303
G1 X19.551 Y-39.013 E12.4349
G1 X22.663 Y-36.992 E12.7948
G1 X22.702 Y-36.965 E12.7993
G1 X22.910 Y-36.814 E12.8242
G1 X22.947 Y-36.786 E12.8288
G1 X25.831 Y-34.450 E13.1887
G1 X25.867 Y-34.420 E13.1933
G1 X26.058 Y-34.248 E13.2182
G1 X26.092 Y-34.216 E13.2227
G1 X28.716 Y-31.592 E13.5826
G1 X28.748 Y-31.558 E13.5872
G1 X28.920 Y-31.367 E13.6121
G1 X28.950 Y-31.331 E13.6166
G1 X31.286 Y-28.447 E13.9765
G1 X31.314 Y-28.410 E13.9811
G1 X31.465 Y-28.202 E14.0060
G1 X31.492 Y-28.163 E14.0106
G1 X33.513 Y-25.051 E14.3705
G1 X33.538 Y-25.011 E14.3750
G1 X33.666 Y-24.789 E14.3999
G1 X33.688 Y-24.747 E14.4045
G1 X35.373 Y-21.441 E14.7644
G1 X35.393 Y-21.399 E14.7690
G1 X35.498 Y-21.164 E14.7938
G1 X35.516 Y-21.121 E14.7984
G1 X36.846 Y-17.656 E15.1583
G1 X36.861 Y-17.612 E15.1629
G1 X36.941 Y-17.368 E15.1878
G1 X36.954 Y-17.323 E15.1923
G1 X37.914 Y-13.738 E15.5523
G1 X37.925 Y-13.692 E15.5568
G1 X37.979 Y-13.441 E15.5817
G1 X37.987 Y-13.395 E15.5863
G1 X38.568 Y-9.730 E15.9462
G1 X38.574 Y-9.683 E15.9508
G1 X38.601 Y-9.428 E15.9756
G1 X38.605 Y-9.381 E15.9802
G1 X38.799 Y-5.675 E16.3401
G1 X38.800 Y-5.628 E16.3447
G1 X38.800 Y-5.372 E16.3696
G1 X38.799 Y-5.325 E16.3741
G1 X38.605 Y-1.619 E16.7340
G1 X38.601 Y-1.572 E16.7386
G1 X38.574 Y-1.317 E16.7635
G1 X38.568 Y-1.270 E16.7680
G1 X37.987 Y2.395 E17.1279
G1 X37.979 Y2.441 E17.1325
G1 X37.925 Y2.692 E17.1574
G1 X37.914 Y2.738 E17.1620
G1 X36.954 Y6.323 E17.5219
G1 X36.941 Y6.368 E17.5264
G1 X36.861 Y6.612 E17.5513
G1 X36.846 Y6.656 E17.5559
G1 X35.516 Y10.121 E17.9158
G1 X35.498 Y10.164 E17.9204
G1 X35.393 Y10.399 E17.9453
G1 X35.373 Y10.441 E17.9498
G1 X33.688 Y13.747 E18.3097
G1 X33.666 Y13.789 E18.3143
G1 X33.538 Y14.011 E18.3392
G1 X33.513 Y14.051 E18.3438
G1 X31.492 Y17.163 E18.7036
G1 X31.465 Y17.202 E18.7082
G1 X31.314 Y17.410 E18.7331
G1 X31.286 Y17.447 E18.7377
G1 X28.950 Y20.331 E19.0976
G1 X28.920 Y20.367 E19.1022
G1 X28.748 Y20.558 E19.1270
G1 X28.716 Y20.592 E19.1316
G1 X26.092 Y23.216 E19.4915
G1 X26.058 Y23.248 E19.4961
G1 X25.867 Y23.420 E19.5210
G1 X25.831 Y23.450 E19.5255
G1 X22.947 Y25.786 E19.8854
G1 X22.910 Y25.814 E19.8900
G1 X22.702 Y25.965 E19.9149
G1 X22.663 Y25.992 E19.9195
G1 X19.551 Y28.013 E20.2794
G1 X19.511 Y28.038 E20.2839
G1 X19.289 Y28.166 E20.3088
G1 X19.247 Y28.188 E20.3134
G1 X15.941 Y29.873 E20.6733
G1 X15.899 Y29.893 E20.6778
G1 X15.664 Y29.998 E20.7027
G1 X15.621 Y30.016 E20.7073
G1 X13.800 Y30.715 E20.8965
G1 X13.800 Y40.515 E21.8469
G1 X13.526 Y41.176 E21.9164
G1 X10.676 Y44.026 E22.3072
G1 X10.015 Y44.300 E22.3767
G1 X-10.015 Y44.300 E24.3193
G1 X-10.676 Y44.026 E24.3887
G1 X-13.526 Y41.176 E24.7796
G1 X-13.800 Y40.515 E24.8490
G1 X-13.800 Y30.715 E25.7995
G1 X-13.080 Y30.220 F24000
G92 E0
G1 X-15.354 Y29.347 E0.2362 F1800
G1 X-15.380 Y29.336 E0.2390
G1 X-15.597 Y29.239 E0.2620
G1 X-15.623 Y29.227 E0.2648
G1 X-18.912 Y27.551 E0.6228
G1 X-18.937 Y27.538 E0.6256
G1 X-19.143 Y27.419 E0.6486
G1 X-19.167 Y27.404 E0.6514
G1 X-22.263 Y25.393 E1.0094
G1 X-22.287 Y25.377 E1.0122
G1 X-22.479 Y25.238 E1.0352
G1 X-22.501 Y25.220 E1.0380
G1 X-25.371 Y22.897 E1.3961
G1 X-25.392 Y22.879 E1.3988
G1 X-25.569 Y22.719 E1.4219
G1 X-25.589 Y22.700 E1.4246
G1 X-28.200 Y20.089 E1.7827
G1 X-28.219 Y20.069 E1.7854
G1 X-28.378 Y19.892 E1.8085
G1 X-28.397 Y19.871 E1.8112
G1 X-30.720 Y17.001 E2.1693
G1 X-30.738 Y16.979 E2.1720
G1 X-30.877 Y16.787 E2.1951
G1 X-30.893 Y16.763 E2.1978
G1 X-32.904 Y13.667 E2.5559
G1 X-32.919 Y13.643 E2.5586
G1 X-33.038 Y13.437 E2.5817
G1 X-33.051 Y13.412 E2.5844
G1 X-34.727 Y10.123 E2.9425
G1 X-34.739 Y10.097 E2.9452
G1 X-34.836 Y9.880 E2.9683
G1 X-34.847 Y9.854 E2.9710
G1 X-36.170 Y6.407 E3.3291
G1 X-36.180 Y6.380 E3.3319
G1 X-36.253 Y6.154 E3.3549
G1 X-36.261 Y6.127 E3.3577
G1 X-37.217 Y2.561 E3.7157
G1 X-37.223 Y2.533 E3.7185
G1 X-37.273 Y2.301 E3.7415
G1 X-37.278 Y2.273 E3.7443
G1 X-37.855 Y-1.373 E4.1024
G1 X-37.859 Y-1.401 E4.1051
G1 X-37.884 Y-1.638 E4.1281
G1 X-37.886 Y-1.666 E4.1309
G1 X-38.079 Y-5.353 E4.4890
G1 X-38.080 Y-5.381 E4.4917
G1 X-38.080 Y-5.619 E4.5148
G1 X-38.079 Y-5.647 E4.5175
G1 X-37.886 Y-9.334 E4.8756
G1 X-37.884 Y-9.362 E4.8783
G1 X-37.859 Y-9.599 E4.9014
G1 X-37.855 Y-9.627 E4.9041
G1 X-37.278 Y-13.273 E5.2622
G1 X-37.273 Y-13.301 E5.2649
G1 X-37.223 Y-13.533 E5.2880
G1 X-37.217 Y-13.561 E5.2907
G1 X-36.261 Y-17.127 E5.6488
G1 X-36.253 Y-17.154 E5.6515
G1 X-36.180 Y-17.381 E5.6746
G1 X-36.170 Y-17.407 E5.6773
G1 X-34.847 Y-20.854 E6.0354
G1 X-34.836 Y-20.880 E6.0382
G1 X-34.739 Y-21.097 E6.0612
G1 X-34.727 Y-21.123 E6.0640
G1 X-33.051 Y-24.412 E6.4220
G1 X-33.038 Y-24.437 E6.4248
G1 X-32.919 Y-24.643 E6.4478
G1 X-32.904 Y-24.667 E6.4506
G1 X-30.893 Y-27.763 E6.8086
G1 X-30.877 Y-27.787 E6.8114
G1 X-30.738 Y-27.979 E6.8344
G1 X-30.720 Y-28.001 E6.8372
G1 X-28.397 Y-30.871 E7.1952
G1 X-28.378 Y-30.892 E7.1980
G1 X-28.219 Y-31.069 E7.2211
G1 X-28.200 Y-31.089 E7.2238
G1 X-25.589 Y-33.700 E7.5819
G1 X-25.569 Y-33.719 E7.5846
G1 X-25.392 Y-33.879 E7.6077
G1 X-25.371 Y-33.897 E7.6104
G1 X-22.501 Y-36.220 E7.9685
G1 X-22.479 Y-36.238 E7.9712
G1 X-22.287 Y-36.377 E7.9943
G1 X-22.263 Y-36.393 E7.9970
G1 X-19.167 Y-38.404 E8.3551
G1 X-19.143 Y-38.419 E8.3578
G1 X-18.937 Y-38.538 E8.3809
G1 X-18.912 Y-38.551 E8.3836
G1 X-15.623 Y-40.227 E8.7417
G1 X-15.597 Y-40.239 E8.7444
G1 X-15.380 Y-40.336 E8.7675
G1 X-15.354 Y-40.347 E8.7702
G1 X-11.907 Y-41.670 E9.1283
G1 X-11.880 Y-41.680 E9.1310
G1 X-11.654 Y-41.753 E9.1541
G1 X-11.627 Y-41.761 E9.1569
G1 X-8.061 Y-42.717 E9.5149
G1 X-8.033 Y-42.723 E9.5177
G1 X-7.801 Y-42.773 E9.5407
G1 X-7.773 Y-42.778 E9.5435
G1 X-4.127 Y-43.355 E9.9015
G1 X-4.099 Y-43.359 E9.9043
G1 X-3.862 Y-43.384 E9.9273
G1 X-3.834 Y-43.386 E9.9301
G1 X-0.147 Y-43.579 E10.2881
G1 X-0.119 Y-43.580 E10.2909
G1 X0.119 Y-43.580 E10.3140
G1 X0.147 Y-43.579 E10.3167
G1 X3.834 Y-43.386 E10.6748
G1 X3.862 Y-43.384 E10.6775
G1 X4.099 Y-43.359 E10.7006
G1 X4.127 Y-43.355 E10.7033
G1 X7.773 Y-42.778 E11.0614
G1 X7.801 Y-42.773 E11.0641
G1 X8.033 Y-42.723 E11.0872
G1 X8.061 Y-42.717 E11.0899
G1 X11.627 Y-41.761 E11.4480
G1 X11.654 Y-41.753 E11.4507
G1 X11.880 Y-41.680 E11.4738
G1 X11.907 Y-41.670 E11.4765
G1 X15.354 Y-40.347 E11.8346
G1 X15.380 Y-40.336 E11.8374
G1 X15.597 Y-40.239 E11.8604
G1 X15.623 Y-40.227 E11.8632
G1 X18.912 Y-38.551 E12.2212
G1 X18.937 Y-38.538 E12.2240
G1 X19.143 Y-38.419 E12.2470
G1 X19.167 Y-38.404 E12.2498
G1 X22.263 Y-36.393 E12.6078
G1 X22.287 Y-36.377 E12.6106
G1 X22.479 Y-36.238 E12.6336
G1 X22.501 Y-36.220 E12.6364
G1 X25.371 Y-33.897 E12.9944
G1 X25.392 Y-33.879 E12.9972
G1 X25.569 Y-33.719 E13.0202
G1 X25.589 Y-33.700 E13.0230
G1 X28.200 Y-31.089 E13.3811
G1 X28.219 Y-31.069 E13.3838
G1 X28.378 Y-30.892 E13.4069
G1 X28.397 Y-30.871 E13.4096
G1 X30.720 Y-28.001 E13.7677
G1 X30.738 Y-27.979 E13.7704
G1 X30.877 Y-27.787 E13.7935
G1 X30.893 Y-27.763 E13.7962
G1 X32.904 Y-24.667 E14.1543
G1 X32.919 Y-24.643 E14.1570
G1 X33.038 Y-24.437 E14.1801
G1 X33.051 Y-24.412 E14.1828
G1 X34.727 Y-21.123 E14.5409
G1 X34.739 Y-21.097 E14.5436
G1 X34.836 Y-20.880 E14.5667
G1 X34.847 Y-20.854 E14.5694
G1 X36.170 Y-17.407 E14.9275
