; G-Code generated by Simplify3D(R) Version 3.0.2
; Sep 28, 2016 at 4:07:03 PM
; Settings Summary
;   processName,Slice
;   applyToModels,ujoint
;   profileName,2016-09-27 battery tray large
;   profileVersion,2016-04-24 10:58:56
;   baseProfile,Default
;   printMaterial,PLA
;   printQuality,Medium
;   printExtruders,
;   extruderName,Extruder 1
;   extruderToolheadNumber,0
;   extruderDiameter,0.6
;   extruderAutoWidth,1
;   extruderWidth,0.72
;   extrusionMultiplier,1.2
;   extruderUseRetract,1
;   extruderRetractionDistance,3.5
;   extruderExtraRestartDistance,0.2
;   extruderRetractionZLift,0.2
;   extruderRetractionSpeed,24000
;   extruderUseCoasting,1
;   extruderCoastingDistance,2
;   extruderUseWipe,0
;   extruderWipeDistance,2
;   primaryExtruder,0
;   layerHeight,0.2
;   topSolidLayers,5
;   bottomSolidLayers,2
;   perimeterOutlines,2
;   printPerimetersInsideOut,1
;   startPointOption,3
;   startPointOriginX,1000
;   startPointOriginY,0
;   startPointOriginZ,1000
;   sequentialIslands,0
;   spiralVaseMode,0
;   firstLayerHeightPercentage,100
;   firstLayerWidthPercentage,100
;   firstLayerUnderspeed,0.5
;   useRaft,0
;   raftExtruder,0
;   raftLayers,3
;   raftOffset,3
;   raftSeparationDistance,0.14
;   raftInfill,85
;   disableRaftBaseLayers,0
;   useSkirt,1
;   skirtExtruder,0
;   skirtLayers,1
;   skirtOutlines,3
;   skirtOffset,3
;   usePrimePillar,0
;   primePillarExtruder,999
;   primePillarWidth,12
;   primePillarLocation,7
;   primePillarSpeedMultiplier,1
;   useOozeShield,0
;   oozeShieldExtruder,999
;   oozeShieldOffset,2
;   oozeShieldOutlines,1
;   oozeShieldSidewallShape,1
;   oozeShieldSidewallAngle,30
;   oozeShieldSpeedMultiplier,1
;   infillExtruder,0
;   internalInfillPattern,Rectilinear
;   externalInfillPattern,Rectilinear
;   infillPercentage,50
;   outlineOverlapPercentage,15
;   infillExtrusionWidthPercentage,100
;   minInfillLength,5
;   infillLayerInterval,1
;   infillAngles,-45,45
;   overlapInfillAngles,0
;   generateSupport,0
;   supportExtruder,0
;   supportInfillPercentage,20
;   supportExtraInflation,1
;   denseSupportLayers,0
;   denseSupportInfillPercentage,70
;   supportLayerInterval,1
;   supportHorizontalPartOffset,1
;   supportUpperSeparationLayers,1
;   supportLowerSeparationLayers,1
;   supportType,0
;   supportGridSpacing,4
;   maxOverhangAngle,30
;   supportAngles,90
;   temperatureName,Extruder 1 Temperature
;   temperatureNumber,0
;   temperatureSetpointCount,2
;   temperatureSetpointLayers,1,2
;   temperatureSetpointTemperatures,235,225
;   temperatureStabilizeAtStartup,1
;   temperatureHeatedBed,0
;   temperatureRelayBetweenLayers,0
;   temperatureRelayBetweenLoops,0
;   fanLayers,1,3
;   fanSpeeds,0,30
;   blipFanToFullPower,0
;   adjustSpeedForCooling,1
;   minSpeedLayerTime,15
;   minCoolingSpeedSlowdown,20
;   increaseFanForCooling,1
;   minFanLayerTime,60
;   maxCoolingFanSpeed,100
;   increaseFanForBridging,1
;   bridgingFanSpeed,100
;   use5D,1
;   relativeEdistances,0
;   allowEaxisZeroing,1
;   independentExtruderAxes,0
;   includeM10123,0
;   stickySupport,1
;   applyToolheadOffsets,0
;   gcodeXoffset,0
;   gcodeYoffset,0
;   gcodeZoffset,0
;   overrideMachineDefinition,1
;   machineTypeOverride,1
;   strokeXoverride,300
;   strokeYoverride,300
;   strokeZoverride,300
;   originOffsetXoverride,150
;   originOffsetYoverride,150
;   originOffsetZoverride,0
;   homeXdirOverride,0
;   homeYdirOverride,0
;   homeZdirOverride,1
;   flipXoverride,1
;   flipYoverride,-1
;   flipZoverride,1
;   toolheadOffsets,0,0|0,0|0,0|0,0|0,0|0,0
;   overrideFirmwareConfiguration,1
;   firmwareTypeOverride,RepRap (Marlin/Repetier/Sprinter)
;   GPXconfigOverride,r2
;   baudRateOverride,250000
;   overridePrinterModels,0
;   printerModelsOverride
;   startingGcode,G32 ; home and autolevel,
;   layerChangeGcode,
;   retractionGcode,
;   toolChangeGcode,
;   endingGcode,M104 S0 ; turn off extruder,M140 S0 ; turn off bed,G28 ; home all axes,M84 ; disable motors
;   createX3G,0
;   celebration,0
;   celebrationSong,Random Song
;   createMB5G,0
;   postProcessing,
;   defaultSpeed,3600
;   outlineUnderspeed,0.5
;   solidInfillUnderspeed,0.8
;   supportUnderspeed,0.8
;   rapidXYspeed,24000
;   rapidZspeed,3600
;   minBridgingArea,50
;   bridgingExtraInflation,0
;   bridgingExtrusionMultiplier,1
;   bridgingSpeedMultiplier,1
;   filamentDiameter,1.75
;   filamentPricePerKg,22
;   filamentDensity,1.25
;   useMinPrintHeight,0
;   minPrintHeight,0
;   useMaxPrintHeight,0
;   maxPrintHeight,0
;   useDiaphragm,0
;   diaphragmLayerInterval,20
;   robustSlicing,1
;   mergeAllIntoSolid,0
;   onlyRetractWhenCrossingOutline,1
;   retractBetweenLayers,0
;   useRetractionMinTravel,1
;   retractionMinTravel,3
;   retractWhileWiping,1
;   onlyWipeOutlines,1
;   avoidCrossingOutline,1
;   maxMovementDetourFactor,1.5
;   toolChangeRetractionDistance,12
;   toolChangeExtraRestartDistance,-0.5
;   toolChangeRetractionSpeed,600
;   allowThinWallGapFill,0
;   thinWallAllowedOverlapPercentage,15
;   horizontalSizeCompensation,0
G90
M82
M106 S0
M104 S235 T0
M109 S235 T0
G32 ; home and autolevel
G92 E0
G1 E-3.5000 F24000
G1 Z0.400 F3600
; layer 1, Z = 0.2
T0
; tool H0.200 W0.720
; skirt
G1 X8.771 Y-16.609 F24000
G1 Z0.200 F3600
G1 E0.2000 F7200
G92 E0
G1 X9.270 Y-16.355 E0.0403 F1800
G1 X9.312 Y-16.332 E0.0437
G1 X9.489 Y-16.230 E0.0583
G1 X9.529 Y-16.206 E0.0617
G1 X10.929 Y-15.296 E0.1817
G1 X10.968 Y-15.269 E0.1851
G1 X11.133 Y-15.149 E0.1997
G1 X11.170 Y-15.121 E0.2031
G1 X12.468 Y-14.070 E0.3231
G1 X12.504 Y-14.039 E0.3264
G1 X12.656 Y-13.903 E0.3411
G1 X12.690 Y-13.870 E0.3445
G1 X13.870 Y-12.690 E0.4645
G1 X13.903 Y-12.656 E0.4678
G1 X14.039 Y-12.504 E0.4825
G1 X14.070 Y-12.468 E0.4859
G1 X15.121 Y-11.170 E0.6059
G1 X15.149 Y-11.133 E0.6092
G1 X15.269 Y-10.968 E0.6239
G1 X15.296 Y-10.929 E0.6273
G1 X16.206 Y-9.529 E0.7472
G1 X16.230 Y-9.489 E0.7506
G1 X16.332 Y-9.312 E0.7653
G1 X16.355 Y-9.270 E0.7687
G1 X17.113 Y-7.782 E0.8887
G1 X17.133 Y-7.740 E0.8920
G1 X17.216 Y-7.553 E0.9067
G1 X17.234 Y-7.510 E0.9101
G1 X17.833 Y-5.951 E1.0300
G1 X17.848 Y-5.907 E1.0334
G1 X17.911 Y-5.712 E1.0481
G1 X17.925 Y-5.667 E1.0515
G1 X18.357 Y-4.054 E1.1714
G1 X18.368 Y-4.009 E1.1748
G1 X18.410 Y-3.809 E1.1895
G1 X18.419 Y-3.762 E1.1929
G1 X18.680 Y-2.113 E1.3128
G1 X18.686 Y-2.067 E1.3162
G1 X18.708 Y-1.864 E1.3309
G1 X18.711 Y-1.817 E1.3343
G1 X18.799 Y-0.149 E1.4542
G1 X18.800 Y-0.102 E1.4576
G1 X18.800 Y0.102 E1.4723
G1 X18.799 Y0.149 E1.4757
G1 X18.711 Y1.817 E1.5956
G1 X18.708 Y1.864 E1.5990
G1 X18.686 Y2.067 E1.6137
G1 X18.680 Y2.113 E1.6171
G1 X18.419 Y3.762 E1.7370
G1 X18.410 Y3.809 E1.7404
G1 X18.368 Y4.009 E1.7551
G1 X18.357 Y4.054 E1.7585
G1 X17.925 Y5.667 E1.8784
G1 X17.911 Y5.712 E1.8818
G1 X17.848 Y5.907 E1.8965
G1 X17.833 Y5.951 E1.8999
G1 X17.234 Y7.510 E2.0198
G1 X17.216 Y7.553 E2.0232
G1 X17.133 Y7.740 E2.0379
G1 X17.113 Y7.782 E2.0412
G1 X16.355 Y9.270 E2.1612
G1 X16.332 Y9.312 E2.1646
G1 X16.230 Y9.489 E2.1793
G1 X16.206 Y9.529 E2.1827
G1 X15.296 Y10.929 E2.3026
G1 X15.269 Y10.968 E2.3060
G1 X15.149 Y11.133 E2.3207
G1 X15.121 Y11.170 E2.3240
G1 X14.070 Y12.468 E2.4440
G1 X14.039 Y12.504 E2.4474
G1 X13.903 Y12.656 E2.4620
G1 X13.870 Y12.690 E2.4654
G1 X12.690 Y13.870 E2.5854
G1 X12.656 Y13.903 E2.5888
G1 X12.504 Y14.039 E2.6034
G1 X12.468 Y14.070 E2.6068
G1 X11.170 Y15.121 E2.7268
G1 X11.133 Y15.149 E2.7302
G1 X10.968 Y15.269 E2.7448
G1 X10.929 Y15.296 E2.7482
G1 X9.529 Y16.206 E2.8682
G1 X9.489 Y16.230 E2.8715
G1 X9.312 Y16.332 E2.8862
G1 X9.270 Y16.355 E2.8896
G1 X8.771 Y16.609 E2.9299
G1 X7.149 Y18.576 E3.1130
G1 X6.835 Y18.820 E3.1416
G1 X5.259 Y19.563 E3.2667
G1 X4.871 Y19.650 E3.2953
G1 X-4.871 Y19.650 E3.9952
G1 X-5.259 Y19.563 E4.0238
G1 X-6.835 Y18.820 E4.1489
G1 X-7.149 Y18.576 E4.1775
G1 X-8.771 Y16.609 E4.3606
G1 X-9.270 Y16.355 E4.4009
G1 X-9.312 Y16.332 E4.4043
G1 X-9.489 Y16.230 E4.4190
G1 X-9.529 Y16.206 E4.4223
G1 X-10.929 Y15.296 E4.5423
G1 X-10.968 Y15.269 E4.5457
G1 X-11.133 Y15.149 E4.5603
G1 X-11.170 Y15.121 E4.5637
G1 X-12.468 Y14.070 E4.6837
G1 X-12.504 Y14.039 E4.6871
G1 X-12.656 Y13.903 E4.7017
G1 X-12.690 Y13.870 E4.7051
G1 X-13.870 Y12.690 E4.8251
G1 X-13.903 Y12.656 E4.8285
G1 X-14.039 Y12.504 E4.8431
G1 X-14.070 Y12.468 E4.8465
G1 X-15.121 Y11.170 E4.9665
G1 X-15.149 Y11.133 E4.9698
G1 X-15.269 Y10.968 E4.9845
G1 X-15.296 Y10.929 E4.9879
G1 X-16.206 Y9.529 E5.1079
G1 X-16.230 Y9.489 E5.1112
G1 X-16.332 Y9.312 E5.1259
G1 X-16.355 Y9.270 E5.1293
G1 X-17.113 Y7.782 E5.2493
G1 X-17.133 Y7.740 E5.2526
G1 X-17.216 Y7.553 E5.2673
G1 X-17.234 Y7.510 E5.2707
G1 X-17.833 Y5.951 E5.3906
G1 X-17.848 Y5.907 E5.3940
G1 X-17.911 Y5.712 E5.4087
G1 X-17.925 Y5.667 E5.4121
G1 X-18.357 Y4.054 E5.5320
G1 X-18.368 Y4.009 E5.5354
G1 X-18.410 Y3.809 E5.5501
G1 X-18.419 Y3.762 E5.5535
G1 X-18.680 Y2.113 E5.6735
G1 X-18.686 Y2.067 E5.6768
G1 X-18.708 Y1.864 E5.6915
G1 X-18.711 Y1.817 E5.6949
G1 X-18.799 Y0.149 E5.8148
G1 X-18.800 Y0.102 E5.8182
G1 X-18.800 Y-0.102 E5.8329
G1 X-18.799 Y-0.149 E5.8363
G1 X-18.711 Y-1.817 E5.9562
G1 X-18.708 Y-1.864 E5.9596
G1 X-18.686 Y-2.067 E5.9743
G1 X-18.680 Y-2.113 E5.9777
G1 X-18.419 Y-3.762 E6.0976
G1 X-18.410 Y-3.809 E6.1010
G1 X-18.368 Y-4.009 E6.1157
G1 X-18.357 Y-4.054 E6.1191
G1 X-17.925 Y-5.667 E6.2390
G1 X-17.911 Y-5.712 E6.2424
G1 X-17.848 Y-5.907 E6.2571
G1 X-17.833 Y-5.951 E6.2605
G1 X-17.234 Y-7.510 E6.3804
G1 X-17.216 Y-7.553 E6.3838
G1 X-17.133 Y-7.740 E6.3985
G1 X-17.113 Y-7.782 E6.4019
G1 X-16.355 Y-9.270 E6.5218
G1 X-16.332 Y-9.312 E6.5252
G1 X-16.230 Y-9.489 E6.5399
G1 X-16.206 Y-9.529 E6.5433
G1 X-15.296 Y-10.929 E6.6632
G1 X-15.269 Y-10.968 E6.6666
G1 X-15.149 Y-11.133 E6.6813
G1 X-15.121 Y-11.170 E6.6847
G1 X-14.070 Y-12.468 E6.8046
G1 X-14.039 Y-12.504 E6.8080
G1 X-13.903 Y-12.656 E6.8227
G1 X-13.870 Y-12.690 E6.8260
G1 X-12.690 Y-13.870 E6.9460
G1 X-12.656 Y-13.903 E6.9494
G1 X-12.504 Y-14.039 E6.9641
G1 X-12.468 Y-14.070 E6.9674
G1 X-11.170 Y-15.121 E7.0874
G1 X-11.133 Y-15.149 E7.0908
G1 X-10.968 Y-15.269 E7.1054
G1 X-10.929 Y-15.296 E7.1088
G1 X-9.529 Y-16.206 E7.2288
G1 X-9.489 Y-16.230 E7.2322
G1 X-9.312 Y-16.332 E7.2468
G1 X-9.270 Y-16.355 E7.2502
G1 X-8.771 Y-16.609 E7.2905
G1 X-7.149 Y-18.576 E7.4736
G1 X-6.835 Y-18.820 E7.5022
G1 X-5.259 Y-19.563 E7.6273
G1 X-4.871 Y-19.650 E7.6559
G1 X4.871 Y-19.650 E8.3558
G1 X5.259 Y-19.563 E8.3844
G1 X6.835 Y-18.820 E8.5095
G1 X7.149 Y-18.576 E8.5381
G1 X7.498 Y-18.152 E8.5775
G1 X8.771 Y-16.609 F1800
G1 X8.310 Y-16.036 F24000
G92 E0
G1 X8.935 Y-15.718 E0.0503 F1800
G1 X8.960 Y-15.704 E0.0524
G1 X9.120 Y-15.611 E0.0657
G1 X9.145 Y-15.597 E0.0677
G1 X10.529 Y-14.697 E0.1863
G1 X10.552 Y-14.681 E0.1884
G1 X10.702 Y-14.572 E0.2017
G1 X10.725 Y-14.555 E0.2037
G1 X12.007 Y-13.516 E0.3223
G1 X12.029 Y-13.498 E0.3243
G1 X12.167 Y-13.374 E0.3377
G1 X12.187 Y-13.355 E0.3397
G1 X13.355 Y-12.187 E0.4583
G1 X13.374 Y-12.167 E0.4603
G1 X13.498 Y-12.029 E0.4736
G1 X13.516 Y-12.007 E0.4757
G1 X14.555 Y-10.725 E0.5943
G1 X14.572 Y-10.702 E0.5963
G1 X14.681 Y-10.552 E0.6096
G1 X14.697 Y-10.529 E0.6116
G1 X15.597 Y-9.145 E0.7302
G1 X15.611 Y-9.120 E0.7323
G1 X15.704 Y-8.960 E0.7456
G1 X15.718 Y-8.935 E0.7476
G1 X16.467 Y-7.464 E0.8662
G1 X16.479 Y-7.438 E0.8683
G1 X16.555 Y-7.269 E0.8816
G1 X16.565 Y-7.243 E0.8836
G1 X17.157 Y-5.702 E1.0022
G1 X17.166 Y-5.675 E1.0042
G1 X17.224 Y-5.499 E1.0175
G1 X17.232 Y-5.472 E1.0196
G1 X17.659 Y-3.877 E1.1382
G1 X17.666 Y-3.850 E1.1402
G1 X17.704 Y-3.668 E1.1535
G1 X17.709 Y-3.640 E1.1556
G1 X17.968 Y-2.010 E1.2742
G1 X17.971 Y-1.982 E1.2762
G1 X17.991 Y-1.798 E1.2895
G1 X17.993 Y-1.770 E1.2915
G1 X18.079 Y-0.121 E1.4101
G1 X18.080 Y-0.093 E1.4122
G1 X18.080 Y0.093 E1.4255
G1 X18.079 Y0.121 E1.4275
G1 X17.993 Y1.770 E1.5461
G1 X17.991 Y1.798 E1.5481
G1 X17.971 Y1.982 E1.5615
G1 X17.968 Y2.010 E1.5635
G1 X17.709 Y3.640 E1.6821
G1 X17.704 Y3.668 E1.6841
G1 X17.666 Y3.850 E1.6974
G1 X17.659 Y3.877 E1.6995
G1 X17.232 Y5.472 E1.8181
G1 X17.224 Y5.499 E1.8201
G1 X17.166 Y5.675 E1.8334
G1 X17.157 Y5.702 E1.8354
G1 X16.565 Y7.243 E1.9540
G1 X16.555 Y7.269 E1.9561
G1 X16.479 Y7.438 E1.9694
G1 X16.467 Y7.464 E1.9714
G1 X15.718 Y8.935 E2.0900
G1 X15.704 Y8.960 E2.0920
G1 X15.611 Y9.120 E2.1054
G1 X15.597 Y9.145 E2.1074
G1 X14.697 Y10.529 E2.2260
G1 X14.681 Y10.552 E2.2280
G1 X14.572 Y10.702 E2.2414
G1 X14.555 Y10.725 E2.2434
G1 X13.516 Y12.007 E2.3620
G1 X13.498 Y12.029 E2.3640
G1 X13.374 Y12.167 E2.3773
G1 X13.355 Y12.187 E2.3794
G1 X12.187 Y13.355 E2.4980
G1 X12.167 Y13.374 E2.5000
G1 X12.029 Y13.498 E2.5133
G1 X12.007 Y13.516 E2.5153
G1 X10.725 Y14.555 E2.6339
G1 X10.702 Y14.572 E2.6360
G1 X10.552 Y14.681 E2.6493
G1 X10.529 Y14.697 E2.6513
G1 X9.145 Y15.597 E2.7699
G1 X9.120 Y15.611 E2.7719
G1 X8.960 Y15.704 E2.7853
G1 X8.935 Y15.718 E2.7873
G1 X8.310 Y16.036 E2.8376
G1 X6.644 Y18.056 E3.0258
G1 X6.455 Y18.203 E3.0429
G1 X5.024 Y18.878 E3.1566
G1 X4.791 Y18.930 E3.1738
G1 X-4.791 Y18.930 E3.8622
G1 X-5.024 Y18.878 E3.8794
G1 X-6.455 Y18.203 E3.9930
G1 X-6.644 Y18.056 E4.0102
G1 X-8.310 Y16.036 E4.1983
G1 X-8.935 Y15.718 E4.2487
G1 X-8.960 Y15.704 E4.2507
G1 X-9.120 Y15.611 E4.2640
G1 X-9.145 Y15.597 E4.2661
G1 X-10.529 Y14.697 E4.3847
G1 X-10.552 Y14.681 E4.3867
G1 X-10.702 Y14.572 E4.4000
G1 X-10.725 Y14.555 E4.4020
G1 X-12.007 Y13.516 E4.5206
G1 X-12.029 Y13.498 E4.5227
G1 X-12.167 Y13.374 E4.5360
G1 X-12.187 Y13.355 E4.5380
G1 X-13.355 Y12.187 E4.6566
G1 X-13.374 Y12.167 E4.6587
G1 X-13.498 Y12.029 E4.6720
G1 X-13.516 Y12.007 E4.6740
G1 X-14.555 Y10.725 E4.7926
G1 X-14.572 Y10.702 E4.7946
G1 X-14.681 Y10.552 E4.8079
G1 X-14.697 Y10.529 E4.8100
G1 X-15.597 Y9.145 E4.9286
G1 X-15.611 Y9.120 E4.9306
G1 X-15.704 Y8.960 E4.9439
G1 X-15.718 Y8.935 E4.9460
G1 X-16.467 Y7.464 E5.0646
G1 X-16.479 Y7.438 E5.0666
G1 X-16.555 Y7.269 E5.0799
G1 X-16.565 Y7.243 E5.0819
G1 X-17.157 Y5.702 E5.2005
G1 X-17.166 Y5.675 E5.2026
G1 X-17.224 Y5.499 E5.2159
G1 X-17.232 Y5.472 E5.2179
G1 X-17.659 Y3.877 E5.3365
G1 X-17.666 Y3.850 E5.3385
G1 X-17.704 Y3.668 E5.3519
G1 X-17.709 Y3.640 E5.3539
G1 X-17.968 Y2.010 E5.4725
G1 X-17.971 Y1.982 E5.4745
G1 X-17.991 Y1.798 E5.4878
G1 X-17.993 Y1.770 E5.4899
G1 X-18.079 Y0.121 E5.6085
G1 X-18.080 Y0.093 E5.6105
G1 X-18.080 Y-0.093 E5.6238
G1 X-18.079 Y-0.121 E5.6259
G1 X-17.993 Y-1.770 E5.7444
G1 X-17.991 Y-1.798 E5.7465
G1 X-17.971 Y-1.982 E5.7598
G1 X-17.968 Y-2.010 E5.7618
G1 X-17.709 Y-3.640 E5.8804
G1 X-17.704 Y-3.668 E5.8824
G1 X-17.666 Y-3.850 E5.8958
G1 X-17.659 Y-3.877 E5.8978
G1 X-17.232 Y-5.472 E6.0164
G1 X-17.224 Y-5.499 E6.0184
G1 X-17.166 Y-5.675 E6.0318
G1 X-17.157 Y-5.702 E6.0338
G1 X-16.565 Y-7.243 E6.1524
G1 X-16.555 Y-7.269 E6.1544
G1 X-16.479 Y-7.438 E6.1677
G1 X-16.467 Y-7.464 E6.1698
G1 X-15.718 Y-8.935 E6.2883
G1 X-15.704 Y-8.960 E6.2904
G1 X-15.611 Y-9.120 E6.3037
G1 X-15.597 Y-9.145 E6.3057
G1 X-14.697 Y-10.529 E6.4244
G1 X-14.681 Y-10.552 E6.4264
G1 X-14.572 Y-10.702 E6.4397
G1 X-14.555 Y-10.725 E6.4417
G1 X-13.516 Y-12.007 E6.5603
G1 X-13.498 Y-12.029 E6.5623
G1 X-13.374 Y-12.167 E6.5757
G1 X-13.355 Y-12.187 E6.5777
G1 X-12.187 Y-13.355 E6.6963
G1 X-12.167 Y-13.374 E6.6983
G1 X-12.029 Y-13.498 E6.7116
G1 X-12.007 Y-13.516 E6.7137
G1 X-10.725 Y-14.555 E6.8323
G1 X-10.702 Y-14.572 E6.8343
G1 X-10.552 Y-14.681 E6.8476
G1 X-10.529 Y-14.697 E6.8496
G1 X-9.145 Y-15.597 E6.9682
G1 X-9.120 Y-15.611 E6.9703
G1 X-8.960 Y-15.704 E6.9836
G1 X-8.935 Y-15.718 E6.9856
G1 X-8.310 Y-16.036 E7.0360
G1 X-6.644 Y-18.056 E7.2241
G1 X-6.455 Y-18.203 E7.2413
G1 X-5.024 Y-18.878 E7.3550
G1 X-4.791 Y-18.930 E7.3721
G1 X4.791 Y-18.930 E8.0605
G1 X5.024 Y-18.878 E8.0777
G1 X6.455 Y-18.203 E8.1914
G1 X6.644 Y-18.056 E8.2085
G1 X7.038 Y-17.579 E8.2530
G1 X8.310 Y-16.036 F1800
G1 X7.850 Y-15.462 F24000
G92 E0
G1 X8.600 Y-15.080 E0.0604 F1800
G1 X8.608 Y-15.076 E0.0611
G1 X8.752 Y-14.993 E0.0731
G1 X8.760 Y-14.988 E0.0737
G1 X10.129 Y-14.099 E0.1910
G1 X10.137 Y-14.093 E0.1917
G1 X10.271 Y-13.996 E0.2036
G1 X10.279 Y-13.990 E0.2043
G1 X11.547 Y-12.963 E0.3215
G1 X11.554 Y-12.957 E0.3222
G1 X11.678 Y-12.845 E0.3342
